packages/astro-components-stencil/src/icons/flash-auto.svg

<svg xmlns="http://www.w3.org/2000/svg" viewBox="0 0 24 24"><g xmlns="http://www.w3.org/2000/svg" id="flash-auto" fill-rule="nonzero">
            <path d="M3 3v10c0 .55.45 1 1 1h2v7.15c0 .51.67.69.93.25l5.19-8.9a.995.995 0 00-.86-1.5H9l3.38-7.59c.29-.67-.2-1.41-.92-1.41H4c-.55 0-1 .45-1 1zm15-1c-.6 0-1.13.38-1.34.94L14.22 9.8c-.2.59.23 1.2.85 1.2.38 0 .72-.24.84-.6L16.4 9h3.2l.49 1.4c.13.36.46.6.84.6.62 0 1.05-.61.84-1.19l-2.44-6.86C19.13 2.38 18.6 2 18 2zm-1.15 5.65L18 4l1.15 3.65h-2.3z"/>
        </g></svg>

<svg width="24" height="24" viewBox="0 0 24 24" fill="none" xmlns="http://www.w3.org/2000/svg">
<path fill-rule="evenodd" clip-rule="evenodd" d="M3 3V13C3 13.55 3.45 14 4 14H6V21.15C6 21.66 6.67 21.84 6.93 21.4L12.12 12.5C12.51 11.83 12.03 11 11.26 11H9L12.38 3.41C12.67 2.74 12.18 2 11.46 2H4C3.45 2 3 2.45 3 3ZM18 2C17.4 2 16.87 2.38 16.66 2.94L14.22 9.8C14.02 10.39 14.45 11 15.07 11C15.45 11 15.79 10.76 15.91 10.4L16.4 9H19.6L20.09 10.4C20.22 10.76 20.55 11 20.93 11C21.55 11 21.98 10.39 21.77 9.81L19.33 2.95C19.13 2.38 18.6 2 18 2ZM18 4L16.85 7.65H19.15L18 4Z" fill="black"/>
</svg>
